X: 18748
T: Ievan Polkka
R: polka
M: 2/4
K: Bminor
F|:"Bm"B>c Bc|dB Bd|"A"cA Ac|"Bm"d/c/B/A/ BF|
"Bm"B>c Bc|dB Bd|"G"ef/e/ "A"dc|1 "Bm"dB B2:|2 "Bm"Bc de||
|:"D"f2 df|"A"ec cd|"Em"ef/e/ "A"dc|"Bm"Bc "A"de|
"D"f2 df|"A"ec cd|"G"ef/e/ "A"dc|1 "Bm"Bc de:|2 "Bm"dB B2||

